Waterleaf/32x32/apps/tdenetworkmanager.svg

<svg version="1.1" viewBox="0 0 32 32" xmlns="http://www.w3.org/2000/svg">
    <defs>
        <filter id="filter842" x="-.012000001" y="-.011999999" width="1.024" height="1.024" color-interpolation-filters="sRGB">
            <feGaussianBlur stdDeviation="0.15000001"/>
        </filter>
    </defs>
    <ellipse cx="16" cy="16.999996" rx="15" ry="15.000003" filter="url(#filter842)" opacity=".2" stroke-width=".73170733"/>
    <ellipse cx="16" cy="15.999998" rx="15" ry="15.000003" fill="#2e7d32" stroke-width=".73170733"/>
    <path d="m16.000039 0.9999715a14.999943 14.999943 0 0 0-14.999943 14.99996 14.999943 14.999943 0 0 0 0.0113474 0.314029 14.999943 14.999943 0 0 1 14.988428-14.778118 14.999943 14.999943 0 0 1 14.988695 14.685979 14.999943 14.999943 0 0 0 0.011348-0.221842 14.999943 14.999943 0 0 0-14.999944-14.999959z" fill="#fff" opacity=".2" stroke-width=".53571236"/>
    <path class="ColorScheme-Text" d="m16.175808 4.0012435a12.001811 12.00028 0 0 0-8.6614637 3.5157088 12.001811 12.00028 0 0 0 0 16.969149 12.001811 12.00028 0 0 0 16.971312 0 12.001811 12.00028 0 0 0 0-16.969149 12.001811 12.00028 0 0 0-8.309848-3.5157088zm-0.328173 1.5000356a10.501585 10.500248 0 0 1 7.020589 2.5723263l-2.106761 2.1064956a12.001046 7.5006538 44.991678 0 0-8.136972-4.1133792 10.501585 10.500248 0 0 1 3.223144-0.5654427zm-4.541701 1.9600078a10.500916 6.0005228 44.992816 0 1 8.391892 3.7823131l-3.697825 3.697354-6.8272018-6.8263315a10.500916 6.0005228 44.992816 0 1 2.1331348-0.6533356zm12.631787 1.6641016a10.501585 10.500248 0 0 1 2.004211 10.21606 12.001046 7.5006538 44.991678 0 0-4.125623-8.094917zm-15.828558 0.046885 6.830132 6.8292615-3.700754 3.700282a10.500916 6.0005228 44.992816 0 1-3.129378-10.529551zm12.6523 3.1289765a10.500916 6.0005228 44.992816 0 1 3.129378 10.529544l-6.830134-6.829262zm-14.703392 0.36036a12.001046 7.5006538 44.991678 0 0 4.1256226 8.094917l-2.121413 2.121143a10.501585 10.500248 0 0 1-2.0042096-10.21606zm9.9419296 4.400493 6.827203 6.826334a10.500916 6.0005228 44.992816 0 1-10.525024-3.128983zm-4.76146 4.760855a12.001046 7.5006538 44.991678 0 0 8.136971 4.11338 10.501585 10.500248 0 0 1-10.243734-2.006886z" fill="#fff" stroke-width="1.500131"/>
</svg>

<?xml version="1.0" encoding="UTF-8" standalone="no"?>
<!-- Created with Inkscape (http://www.inkscape.org/) -->

<svg
   xmlns:dc="http://purl.org/dc/elements/1.1/"
   xmlns:cc="http://creativecommons.org/ns#"
   xmlns:rdf="http://www.w3.org/1999/02/22-rdf-syntax-ns#"
   xmlns:svg="http://www.w3.org/2000/svg"
   xmlns="http://www.w3.org/2000/svg"
   xmlns:sodipodi="http://sodipodi.sourceforge.net/DTD/sodipodi-0.dtd"
   xmlns:inkscape="http://www.inkscape.org/namespaces/inkscape"
   version="1.1"
   id="svg2"
   width="32"
   height="32"
   viewBox="0 0 32 32"
   sodipodi:docname="tdenetworkmanager.svg"
   inkscape:version="0.92.4 (5da689c313, 2019-01-14)"
   inkscape:export-filename="/home/john/Nextcloud/Q4OS Stuff/tdevelop.png"
   inkscape:export-xdpi="96"
   inkscape:export-ydpi="96">
  <metadata
     id="metadata8">
    <rdf:RDF>
      <cc:Work
         rdf:about="">
        <dc:format>image/svg+xml</dc:format>
        <dc:type
           rdf:resource="http://purl.org/dc/dcmitype/StillImage" />
        <dc:title />
      </cc:Work>
    </rdf:RDF>
  </metadata>
  <defs
     id="defs6" />
  <sodipodi:namedview
     pagecolor="#ffffff"
     bordercolor="#666666"
     borderopacity="1"
     objecttolerance="10"
     gridtolerance="10"
     guidetolerance="10"
     inkscape:pageopacity="0"
     inkscape:pageshadow="2"
     inkscape:window-width="1362"
     inkscape:window-height="695"
     id="namedview4"
     showgrid="true"
     fit-margin-top="0"
     fit-margin-left="0"
     fit-margin-right="0"
     fit-margin-bottom="0"
     showguides="true"
     inkscape:zoom="16.125"
     inkscape:cx="16"
     inkscape:cy="16"
     inkscape:window-x="0"
     inkscape:window-y="0"
     inkscape:window-maximized="1"
     inkscape:current-layer="svg2"
     inkscape:snap-grids="true">
    <inkscape:grid
       type="xygrid"
       id="grid822" />
  </sodipodi:namedview>
  <ellipse
     style="opacity:1;fill:#2e7d32;fill-opacity:1;stroke-width:0.73170733"
     id="path5219-3"
     cx="16"
     cy="15.999998"
     rx="15"
     ry="15.000003" />
  <path
     inkscape:connector-curvature="0"
     style="opacity:0.2;fill:#ffffff;stroke-width:0.53571236"
     d="M 16.000039,0.9999715 A 14.999943,14.999943 0 0 0 1.0000957,15.999931 14.999943,14.999943 0 0 0 1.0114431,16.31396 14.999943,14.999943 0 0 1 15.999871,1.5358419 14.999943,14.999943 0 0 1 30.988566,16.221821 14.999943,14.999943 0 0 0 30.999914,15.999979 14.999943,14.999943 0 0 0 15.99997,1.0000197 Z"
     id="path5512-1" />
  <path
     inkscape:connector-curvature="0"
     style="opacity:1;fill:#ffffff;stroke-width:1.50013101"
     class="ColorScheme-Text"
     d="m 16.175808,4.0012435 a 12.001811,12.00028 0 0 0 -8.6614637,3.5157088 12.001811,12.00028 0 0 0 0,16.9691487 12.001811,12.00028 0 0 0 16.9713117,0 12.001811,12.00028 0 0 0 0,-16.9691487 12.001811,12.00028 0 0 0 -8.309848,-3.5157088 z m -0.328173,1.5000356 a 10.501585,10.500248 0 0 1 7.020589,2.5723263 L 20.761463,10.180101 A 12.001046,7.5006538 44.991678 0 0 12.624491,6.0667218 10.501585,10.500248 0 0 1 15.847635,5.5012791 Z M 11.305934,7.4612869 A 10.500916,6.0005228 44.992816 0 1 19.697826,11.2436 L 16.000001,14.940954 9.1727992,8.1146225 A 10.500916,6.0005228 44.992816 0 1 11.305934,7.4612869 Z m 12.631787,1.6641016 a 10.501585,10.500248 0 0 1 2.004211,10.2160595 12.001046,7.5006538 44.991678 0 0 -4.125623,-8.094917 z m -15.828558,0.046885 6.830132,6.8292615 -3.700754,3.700282 A 10.500916,6.0005228 44.992816 0 1 8.109163,9.1722662 Z m 12.6523,3.1289765 a 10.500916,6.0005228 44.992816 0 1 3.129378,10.529544 L 17.060707,16.001532 Z M 6.0580714,12.66161 a 12.001046,7.5006538 44.991678 0 0 4.1256226,8.094917 L 8.062281,22.87767 A 10.501585,10.500248 0 0 1 6.0580714,12.66161 Z m 9.9419296,4.400493 6.827203,6.826334 A 10.500916,6.0005228 44.992816 0 1 12.30218,20.759454 Z m -4.76146,4.760855 a 12.001046,7.5006538 44.991678 0 0 8.136971,4.11338 10.501585,10.500248 0 0 1 -10.2437343,-2.006886 z"
     id="path5" />
</svg>
